X:1
T:It Is Na, Jean, Thy Bonie Face
M:4/4
L:1/8
K:Eb
 G2| c3 =B c3/2- B/2 c3/2- d/2| e2 E3/2- F/2 E2 e3/2- d/2| c2 e2 B2 A3/2- G/2|\
 F4 z2 E3/2- F/2| G3/2- F/2 E3/2- F/2 G2 e3/2- d/2|c-Bc-e B3 B|c-de-fg-fe-d|\
 e6 d3/2- e/2|f-dg-f f2e-d|e-de-f g2B-A|G-FG-ce-dc-=B| c4 z2 c3/2- e/2|\
 B2A-G F2 d3/2- e/2|f-ed-c G2E-F| G2A-GF-E D3/2- C/2| C6||
